modules/feathericon/icons/laptop.svg

<?xml version="1.0" encoding="UTF-8"?>
<svg width="14px" height="10px" viewBox="0 0 14 10" version="1.1" xmlns="http://www.w3.org/2000/svg" xmlns:xlink="http://www.w3.org/1999/xlink">
    <!-- Generator: sketchtool 48.1 (47250) - http://www.bohemiancoding.com/sketch -->
    <title>laptop</title>
    <desc>Created with sketchtool.</desc>
    <defs></defs>
    <g id="devices" stroke="none" stroke-width="1" fill="none" fill-rule="evenodd">
        <g id="laptop" fill="#000000">
            <path d="M-1.13464793e-13,9 L14,9 C14,9 14,10 13,10 C13.0456009,10 1.00000005,10 1,10 C-1.04527498e-13,10 -1.13464793e-13,9 -1.13464793e-13,9 Z M12.9999999,7.03417969 C12.9999999,8 12,8 12,8 L2.00085434,8 C2.00085434,8 1.00007424,8 1.00007519,7 C1.00007437,7.03417969 0.999999537,1 1.00007519,1 C1.00007519,0 2.00085434,0 2.00085434,0 L12,0 C12,0 12.9999999,0 12.9999999,1 C12.9999999,1 12.9999999,7.03417969 12.9999999,7.03417969 Z M2,1 L2,7 L12,7 L12,1 L2,1 Z" id="Shape"></path>
        </g>
    </g>
</svg>

<svg width="14" height="10" xmlns="http://www.w3.org/2000/svg"><path d="M0 9h14s0 1-1 1H1c-1 0-1-1-1-1zm13-1.966C13 8 12 8 12 8H2S1 8 1 7V1c0-1 1-1 1-1h10s1 0 1 1v6.034zM2 1v6h10V1H2z" fill="#000" fill-rule="evenodd"/></svg>
